static/images/location.svg

<svg enable-background="new 0 0 265.5 397.3" viewBox="0 0 265.5 397.3" xmlns="http://www.w3.org/2000/svg"><path d="m132.7 392.3-22.5-34.1c-2.7-4.1-27.1-41.3-51.8-85.6-36.4-65.4-54.1-110.9-54.1-139.2 0-70.8 57.6-128.4 128.4-128.4s128.5 57.6 128.5 128.5c0 28.3-17.7 73.8-54.2 139.1-25.8 46.2-50.7 84-51.8 85.6zm0-377.3c-65.3 0-118.4 53.1-118.4 118.4 0 26.5 17.3 70.5 52.9 134.2 24.6 44 48.7 80.9 51.4 85l14.2 21.5 14.2-21.5c1-1.6 25.8-39.1 51.4-85 35.6-63.8 52.9-107.7 52.9-134.2-.1-65.3-53.2-118.4-118.6-118.4zm0 186.6c-38 0-69-31-69-69s31-69 69-69 69 31 69 69-30.9 69-69 69zm0-128c-32.5 0-59 26.5-59 59s26.5 59 59 59 59-26.5 59-59-26.4-59-59-59z" fill="#97d8e1"/><path d="m261.2 133.4h-10c0-65.3-53.1-118.4-118.5-118.4v-10c70.9 0 128.5 57.6 128.5 128.4z" fill="#7c87c3"/><path d="m207 272.5-8.7-4.9c35.6-63.8 52.9-107.7 52.9-134.2h10c0 28.3-17.7 73.8-54.2 139.1zm-192.7-139.1h-10c0-70.8 57.6-128.4 128.4-128.4v10c-65.3 0-118.4 53.1-118.4 118.4z" fill="#f15758"/><path d="m132.7 201.6c-38 0-69-31-69-69h10c0 32.5 26.5 59 59 59s59-26.5 59-59-26.5-59-59-59v-10c38 0 69 31 69 69s-30.9 69-69 69z" fill="#5dc8da"/></svg>

<?xml version="1.0" encoding="utf-8"?>
<!-- Generator: Adobe Illustrator 19.2.0, SVG Export Plug-In . SVG Version: 6.00 Build 0)  -->
<svg version="1.1" id="Layer_1" xmlns="http://www.w3.org/2000/svg" xmlns:xlink="http://www.w3.org/1999/xlink" x="0px" y="0px"
	 viewBox="0 0 265.5 397.3" style="enable-background:new 0 0 265.5 397.3;" xml:space="preserve">
<style type="text/css">
	.st0{fill:#97D8E1;}
	.st1{fill:#7C87C3;}
	.st2{fill:#F15758;}
	.st3{fill:#5DC8DA;}
</style>
<g>
	<g>
		<g>
			<g>
				<path class="st0" d="M132.7,392.3l-22.5-34.1c-2.7-4.1-27.1-41.3-51.8-85.6C22,207.2,4.3,161.7,4.3,133.4
					C4.3,62.6,61.9,5,132.7,5c70.8,0,128.5,57.6,128.5,128.5c0,28.3-17.7,73.8-54.2,139.1c-25.8,46.2-50.7,84-51.8,85.6L132.7,392.3
					z M132.7,15C67.4,15,14.3,68.1,14.3,133.4c0,26.5,17.3,70.5,52.9,134.2c24.6,44,48.7,80.9,51.4,85l14.2,21.5l14.2-21.5
					c1-1.6,25.8-39.1,51.4-85c35.6-63.8,52.9-107.7,52.9-134.2C251.2,68.1,198.1,15,132.7,15z M132.7,201.6c-38,0-69-31-69-69
					s31-69,69-69s69,31,69,69S170.8,201.6,132.7,201.6z M132.7,73.6c-32.5,0-59,26.5-59,59s26.5,59,59,59c32.5,0,59-26.5,59-59
					S165.3,73.6,132.7,73.6z"/>
			</g>
		</g>
	</g>
	<g>
		<g>
			<g>
				<path class="st1" d="M261.2,133.4h-10C251.2,68.1,198.1,15,132.7,15V5C203.6,5,261.2,62.6,261.2,133.4z"/>
			</g>
		</g>
	</g>
	<g>
		<g>
			<g>
				<path class="st2" d="M207,272.5l-8.7-4.9c35.6-63.8,52.9-107.7,52.9-134.2h10C261.2,161.7,243.5,207.2,207,272.5z M14.3,133.4
					h-10C4.3,62.6,61.9,5,132.7,5v10C67.4,15,14.3,68.1,14.3,133.4z"/>
			</g>
		</g>
	</g>
	<g>
		<g>
			<g>
				<path class="st3" d="M132.7,201.6c-38,0-69-31-69-69h10c0,32.5,26.5,59,59,59c32.5,0,59-26.5,59-59s-26.5-59-59-59v-10
					c38,0,69,31,69,69S170.8,201.6,132.7,201.6z"/>
			</g>
		</g>
	</g>
</g>
</svg>
